www/assets/images/test_icons/flags/OM.svg

<svg width="21" height="15" viewBox="0 0 21 15" fill="none" xmlns="http://www.w3.org/2000/svg">
<mask id="mask0_3_75" style="mask-type:alpha" maskUnits="userSpaceOnUse" x="0" y="0" width="21" height="15">
<path d="M19 0H2C0.89543 0 0 0.89543 0 2V13C0 14.1046 0.89543 15 2 15H19C20.1046 15 21 14.1046 21 13V2C21 0.89543 20.1046 0 19 0Z" fill="white"/>
</mask>
<g mask="url(#mask0_3_75)">
<path d="M19 0H2C0.89543 0 0 0.89543 0 2V13C0 14.1046 0.89543 15 2 15H19C20.1046 15 21 14.1046 21 13V2C21 0.89543 20.1046 0 19 0Z" fill="#DE0F09"/>
<path fill-rule="evenodd" clip-rule="evenodd" d="M6 10H21V15H6V10Z" fill="#008100"/>
<path fill-rule="evenodd" clip-rule="evenodd" d="M5.99999 0H21V5H5.99999V0ZM4.57599 3.903C4.52099 3.986 4.45799 4.063 4.38599 4.136C3.79899 4.722 2.84899 4.722 2.26399 4.136C1.67799 3.551 1.67799 2.601 2.26399 2.016C2.33599 1.942 2.41399 1.879 2.49699 1.824C2.27199 2.244 2.45699 2.916 2.97099 3.429C3.48499 3.941 4.15599 4.127 4.57699 3.902L4.57599 3.903Z" fill="white"/>
<path fill-rule="evenodd" clip-rule="evenodd" d="M2.424 3.903C2.479 3.986 2.542 4.063 2.614 4.136C3.201 4.722 4.151 4.722 4.736 4.136C5.322 3.551 5.322 2.601 4.736 2.016C4.664 1.942 4.586 1.879 4.503 1.824C4.728 2.244 4.543 2.916 4.029 3.429C3.515 3.941 2.844 4.127 2.423 3.902L2.424 3.903Z" fill="white"/>
<path d="M19 0.5H2C1.17157 0.5 0.5 1.17157 0.5 2V13C0.5 13.8284 1.17157 14.5 2 14.5H19C19.8284 14.5 20.5 13.8284 20.5 13V2C20.5 1.17157 19.8284 0.5 19 0.5Z" stroke="black" stroke-opacity="0.1"/>
</g>
</svg>

<svg fill="none" height="15" viewBox="0 0 21 15" width="21" xmlns="http://www.w3.org/2000/svg" xmlns:xlink="http://www.w3.org/1999/xlink"><mask id="a" height="15" maskUnits="userSpaceOnUse" width="21" x="0" y="0"><path d="m19 0h-17c-1.10457 0-2 .89543-2 2v11c0 1.1046.89543 2 2 2h17c1.1046 0 2-.8954 2-2v-11c0-1.10457-.8954-2-2-2z" fill="#fff"/></mask><g mask="url(#a)"><path d="m19 0h-17c-1.10457 0-2 .89543-2 2v11c0 1.1046.89543 2 2 2h17c1.1046 0 2-.8954 2-2v-11c0-1.10457-.8954-2-2-2z" fill="#de0f09"/><g clip-rule="evenodd" fill-rule="evenodd"><path d="m6 10h15v5h-15z" fill="#008100"/><path d="m5.99999 0h15.00001v5h-15.00001zm-1.424 3.903c-.055.083-.118.16-.19.233-.587.586-1.537.586-2.122 0-.586-.585-.586-1.535 0-2.12.072-.074.15-.137.233-.192-.225.42-.04 1.092.474 1.605.514.512 1.185.698 1.606.473z" fill="#fff"/><path d="m2.424 3.903c.055.083.118.16.19.233.587.586 1.537.586 2.122 0 .586-.585.586-1.535 0-2.12-.072-.074-.15-.137-.233-.192.225.42.04 1.092-.474 1.605-.514.512-1.185.698-1.606.473z" fill="#fff"/></g><path d="m19 .5h-17c-.82843 0-1.5.67157-1.5 1.5v11c0 .8284.67157 1.5 1.5 1.5h17c.8284 0 1.5-.6716 1.5-1.5v-11c0-.82843-.6716-1.5-1.5-1.5z" stroke="#000" stroke-opacity=".1"/></g></svg>
